X:792
T:Brudmarsch från Malmberget
R:Brudmarsch
C:Olof Lagerqvist
Z:C-G Magnusson, 2008-11-30
O:Malmberget, Lappland
D:JP Nyströms - Kallvattudans (1981)
N:Upptecknad av Svante Lindqvist.
Q:90
M:2/4
L:1/8
K:Gm
D2 |: G>^F GA | {Bc}BA/B/ c(3(B/c/B/) | G(3(B/c/B/) ^F(3(B/c/B/) | GD B,G, |
G>^F GA | {Bc}BA/B/ cB/c/ | d>e d/^c/d/e/ |1 d3 z :|2 d2 zd |
|: gg ff | d2 B>c | de/d/ cA | {Bc}BG AD |
G>A Bc | de/d/ cA | BG A^F/D/ |1 G3 D :|2 G2|]
(:musicend:)

(:music:)
